X: 35181
T: Rookland Lasses
R: jig
M: 6/8
K: Gmajor
|:B|"G"DGG BAB|"G"GBd gfg|"G"dBG DGB|"D7"cAF DFA|
"G"DGG BAB|"G"GBd gfg|"G"dBG "D7" DFA|"D7"BGG "G"G2:|
|:(3def||"G"gGG "D7"fGG|"C"eGG "G"dGG|"G"DGB dBG|"D7"FAA ABc|
"G"dBG "Am"ecA|"D7"fdB "G"gdB|"D7"cAF Ddc|"D7"BGG "G"G2:|

